X:1
T:Lord Lovell
B:Journal of the English Folk Dance and Song Society, Dec 1934
Z:George Chambers
S:Mrs Hollingsworth, Sibley's Green, Thaxted, July 1921
M:4/4     %Meter
L:1/8     %
K:C
G2 |G2 A B c2 F F |E2 D2 C2
w:Lord Lov-ell he stood by his sta-ble gates
(cd) |e2 d c G2 d2 | c6
w:A-*comb-ing his milk-white steed,
G2 |G2 A B c2 B c |c c (Bc) E2
w:When fair Nan-cy came with a sor-row-ful_ heart
(DC) |G2 (AG) E E (DC) | (G3 A G2)
w:To_ wish her_ lov-er good_ speed_*
 AB |c2 F2 EE D2 |C6 |]
w: To_ wish her lov-er good speed.
W:First verse only supplied as given in the music. See related versions for more lyrics.
